X: 13797
T: Four Bare Legs Together
R: slip jig
M: 9/8
K: Gdorian
|:A2B cBA BAG|FGA A2G FED|BAB cBc d3|DGG G2A BAG:|
|:F2f fgf e2d|cAA A2G FED|d2g gag f2e|dgg g2a bag|
f2f fgf e2d|cAA A2G FED|BAB cBc d3|DGG G2A BAG:|

